packages/icons/svg/User_Account_Customer--Collaborator_24px.svg

<svg xmlns="http://www.w3.org/2000/svg" viewBox="0 0 24 24"><path d="M15.21 19.25h3.58a.5.5 0 00.36-.85l-1.8-1.8a.5.5 0 00-.7 0l-1.8 1.8a.5.5 0 00.36.85zM10 13a5 5 0 10-5-5 5 5 0 005 5zm0-8a3 3 0 11-3 3 3 3 0 013-3z"/><path d="M21.5 14h-9a.49.49 0 00-.48.42v-.05a7.34 7.34 0 01-5.64-.71 1 1 0 00-.8-.09l-2.85.88a1 1 0 00-.71 1V20a1 1 0 00.68.95A25.42 25.42 0 0010 22c.73 0 1.47 0 2.21-.1a.51.51 0 00.29.1h9a.5.5 0 00.5-.5v-7a.5.5 0 00-.5-.5zM4 19.25v-3.11l1.75-.53a9.34 9.34 0 006.25.81v3.49c-.67.06-1.34.09-2 .09a25.1 25.1 0 01-6-.75zM21 21h-8v-6h8z"/></svg>

<svg xmlns="http://www.w3.org/2000/svg" viewBox="0 0 24 24"><defs></defs><g id="Calque_5" ><path  d="M15.21,19.25h3.58a.5.5,0,0,0,.36-.85l-1.8-1.8a.5.5,0,0,0-.7,0l-1.8,1.8A.5.5,0,0,0,15.21,19.25Z"/><path  d="M10,13A5,5,0,1,0,5,8,5,5,0,0,0,10,13Zm0-8A3,3,0,1,1,7,8,3,3,0,0,1,10,5Z"/><path  d="M21.5,14h-9a.49.49,0,0,0-.48.42l0-.05a7.34,7.34,0,0,1-5.64-.71,1,1,0,0,0-.8-.09l-2.85.88a1,1,0,0,0-.71,1V20a1,1,0,0,0,.68.95A25.42,25.42,0,0,0,10,22c.73,0,1.47,0,2.21-.1a.51.51,0,0,0,.29.1h9a.5.5,0,0,0,.5-.5v-7A.5.5,0,0,0,21.5,14ZM4,19.25V16.14l1.75-.53a9.34,9.34,0,0,0,6.25.81v3.49c-.67.06-1.34.09-2,.09A25.1,25.1,0,0,1,4,19.25ZM21,21H13V15h8Z"/></g></svg>
